X:1
T:Luring #1
R:schottis
H:efter Luringen och Spel-Bengten
A:Sm{\aa}land
Z:hn-schottis-1
M:C|
K:D
a2a>g e>ce>g|g>fa>f d2f>g|a2a>g e>ce>g|f2a>f d4:|
|:A>Bc<d e2g2|f>aa>g e2c2|A>ce>c d2d2|E>^GB2 (3BcBA2|
A>Bc<d e2g2|f>aa>g e2c2|A>ce>c d2d2|E>^GB2 A4:|
<end>
<start>
